assets/Bar chart/Flat/bar_chart_flat.svg

<svg width="32" height="32" viewBox="0 0 32 32" fill="none" xmlns="http://www.w3.org/2000/svg">
<path d="M2 6C2 3.79086 3.79086 2 6 2H26C28.2091 2 30 3.79086 30 6V26C30 27.4806 29.1956 28.7733 28 29.4649L26.5537 28.9997C25.5578 28.6794 24.4759 28.762 23.5402 29.2299L22 30H19L16 28.5L13 30H10L8.45982 29.2299C7.52406 28.762 6.44223 28.6794 5.44626 28.9997L4 29.4649C2.8044 28.7733 2 27.4806 2 26V6Z" fill="#E1D8EC"/>
<path d="M10 11V21H2V22H10V30H11V22H21V30H22V22H30V21H22V11H30V10H22V2H21V10H11V2H10V10H2V11H10ZM11 11H21V21H11V11Z" fill="#B4ACBC"/>
<path d="M6 30H10V10.2135C10 9.54155 9.4527 9 8.77365 9H5.22635C4.5473 9 4 9.54155 4 10.2135V29.4649C4.58835 29.8052 5.27143 30 6 30Z" fill="#00D26A"/>
<path d="M17.7736 17H14.2264C13.5473 17 13 17.5417 13 18.2137V30H19V18.2137C19 17.5417 18.4527 17 17.7736 17Z" fill="#F70A8D"/>
<path d="M22 30H26C26.7286 30 27.4117 29.8052 28 29.4649V7.20899C28 6.53955 27.4527 6 26.7736 6H23.2264C22.5473 6 22 6.53955 22 7.20899V30Z" fill="#00A6ED"/>
</svg>

<svg xmlns="http://www.w3.org/2000/svg" width="32" height="32" fill="none"><path fill="#E1D8EC" d="M2 6a4 4 0 0 1 4-4h20a4 4 0 0 1 4 4v20c0 1.48-.804 2.773-2 3.465L26.554 29a4 4 0 0 0-3.014.23L22 30h-3l-3-1.5-3 1.5h-3l-1.54-.77A4 4 0 0 0 5.446 29L4 29.465A3.998 3.998 0 0 1 2 26V6Z"/><path fill="#B4ACBC" d="M10 11v10H2v1h8v8h1v-8h10v8h1v-8h8v-1h-8V11h8v-1h-8V2h-1v8H11V2h-1v8H2v1h8Zm1 0h10v10H11V11Z"/><path fill="#00D26A" d="M6 30h4V10.213C10 9.543 9.453 9 8.774 9H5.226C4.547 9 4 9.542 4 10.213v19.252c.588.34 1.271.535 2 .535Z"/><path fill="#F70A8D" d="M17.774 17h-3.548c-.679 0-1.226.542-1.226 1.214V30h6V18.214c0-.672-.547-1.214-1.226-1.214Z"/><path fill="#00A6ED" d="M22 30h4c.729 0 1.412-.195 2-.535V7.209C28 6.539 27.453 6 26.774 6h-3.548C22.547 6 22 6.54 22 7.209V30Z"/></svg>
